humanity-icon-theme/Humanity/actions/16/edit-cut.svg

<?xml version="1.0" encoding="UTF-8" standalone="no"?>
<!-- Created with Inkscape (http://www.inkscape.org/) -->

<svg
   xmlns:svg="http://www.w3.org/2000/svg"
   xmlns="http://www.w3.org/2000/svg"
   xmlns:xlink="http://www.w3.org/1999/xlink"
   version="1.1"
   width="16"
   height="16"
   id="svg2868">
  <defs
     id="defs2870">
    <linearGradient
       x1="295.10086"
       y1="7.7640672"
       x2="296.93979"
       y2="10.711433"
       id="linearGradient6372"
       xlink:href="#XMLID_897_"
       gradientUnits="userSpaceOnUse"
       gradientTransform="matrix(1.1218077,-0.27054212,0.35065353,1.3943807,-327.20211,75.198468)" />
    <linearGradient
       x1="292.97168"
       y1="4.7592773"
       x2="296.93979"
       y2="10.711433"
       id="XMLID_897_"
       gradientUnits="userSpaceOnUse">
      <stop
         id="stop45093"
         style="stop-color:#e8e8e5;stop-opacity:1"
         offset="0" />
      <stop
         id="stop45095"
         style="stop-color:#f0f0f0;stop-opacity:1"
         offset="1" />
    </linearGradient>
    <linearGradient
       x1="293.68268"
       y1="5.4689622"
       x2="296.93979"
       y2="10.711433"
       id="linearGradient2922"
       xlink:href="#XMLID_897_"
       gradientUnits="userSpaceOnUse"
       gradientTransform="matrix(-1.1150516,-0.23157263,-0.31963526,1.3932756,341.24169,63.829342)" />
  </defs>
  <g
     id="layer1">
    <path
       d="m 13.409802,0.4875624 c 0.05195,0.0349657 0.101526,0.0721198 0.151737,0.10825506 L 13.525579,3.6872329 C 13,6 10.52517,7.1719729 9.002489,9.1248981 8.7897013,9.1325491 8.5802943,8.8067309 8.3753082,8.7704285 7.943676,8.6949868 7.5218692,8.5245586 7.1568457,8.2583556 9.1820052,5.661498 11.364515,3.0584312 13.409802,0.4875624 z"
       id="path12626"
       style="fill:url(#linearGradient2922);stroke:#888a85;stroke-width:1;stroke-linecap:round;stroke-linejoin:round;stroke-miterlimit:4;stroke-opacity:1;stroke-dasharray:none" />
    <polygon
       points="296.95605,12.300293 297.6001,13.384766 298.86719,14.71875 299.26807,13.672852 298.25391,11.960449 296.95605,12.300293 "
       transform="matrix(-0.9931683,-0.27984223,-0.35343052,1.2091849,307.45722,77.285544)"
       id="polygon2981"
       style="fill:#d1524c;fill-opacity:1;stroke:#973137;stroke-width:0.87711573;stroke-linecap:round;stroke-linejoin:round;stroke-miterlimit:4;stroke-opacity:1;stroke-dasharray:none" />
    <path
       d="M 2.7119003,0.53777117 2.5607555,0.65198222 2.5386245,3.5101761 C 3,6 5.5227176,7.2293517 7.0998225,9.148154 7.3149334,9.1487886 8.1990536,9.4887755 8.405404,9.445373 8.839945,9.3549388 9.2626582,9.1690945 9.6260992,8.8885283 7.5285066,6.3370747 4.8292574,3.0623498 2.7119003,0.53777117 z"
       id="path12632"
       style="fill:url(#linearGradient6372);stroke:#888a85;stroke-width:1;stroke-linecap:round;stroke-linejoin:round;stroke-miterlimit:4;stroke-opacity:1;stroke-dasharray:none" />
    <path
       d="M 6.3371363,10.399417 C 7.0883737,11.395708 6.6911305,13.706021 5.6713028,15.008168 4.6513103,16.311236 3.3961902,16.113954 2.644119,15.120362 1.8924898,14.123915 2.1094578,12.26155 3.1293117,10.959432 4.1487382,9.6571296 5.584785,9.4077477 6.3371363,10.399417 z m -0.6488217,0.830652 c -0.3337621,-0.44123 -1.2188521,-0.28144 -1.9038379,0.59491 -0.6860455,0.87592 -0.8255661,2.025389 -0.4920113,2.465634 0.3331029,0.442774 1.0386653,0.728418 1.7236347,-0.147967 0.6864274,-0.875747 1.0059761,-2.471344 0.6722145,-2.912577 z"
       id="path12638"
       style="fill:#d1524c;fill-opacity:1;stroke:#973137;stroke-width:0.54695249;stroke-miterlimit:4;stroke-opacity:1;stroke-dasharray:none" />
    <polygon
       points="297.6001,13.384766 298.86719,14.71875 299.26807,13.672852 298.25391,11.960449 296.95605,12.300293 296.95605,12.300293 "
       transform="matrix(1.0020543,-0.24613441,0.31238391,1.2204333,-293.31665,67.335136)"
       id="polygon12640"
       style="fill:#d1524c;fill-opacity:1;stroke:#973137;stroke-width:0.87711579;stroke-linecap:round;stroke-linejoin:round;stroke-miterlimit:4;stroke-opacity:1;stroke-dasharray:none" />
    <path
       d="m 9.585864,10.399417 c -0.7512378,0.996291 -0.3539947,3.306604 0.665833,4.608751 1.019992,1.303068 2.275112,1.105786 3.027184,0.112194 0.751629,-0.996447 0.534661,-2.858812 -0.485193,-4.16093 C 11.774262,9.6571296 10.338215,9.4077477 9.585864,10.399417 z m 0.648822,0.830652 c 0.333762,-0.44123 1.218852,-0.28144 1.903837,0.59491 0.686046,0.87592 0.825566,2.025389 0.492011,2.465634 -0.333102,0.442774 -1.038665,0.728418 -1.723634,-0.147967 -0.686428,-0.875747 -1.0059762,-2.471344 -0.672214,-2.912577 z"
       id="path2828"
       style="fill:#d1524c;fill-opacity:1;stroke:#973137;stroke-width:0.54695243;stroke-miterlimit:4;stroke-opacity:1;stroke-dasharray:none" />
  </g>
</svg>

<?xml version="1.0" encoding="UTF-8" standalone="no"?>
<!-- Created with Inkscape (http://www.inkscape.org/) -->
<svg id="svg2868" xmlns="http://www.w3.org/2000/svg" height="16" width="16" version="1.1" xmlns:xlink="http://www.w3.org/1999/xlink">
 <defs id="defs2870">
  <linearGradient id="linearGradient6372" y2="10.711" xlink:href="#XMLID_897_" gradientUnits="userSpaceOnUse" x2="296.94" gradientTransform="matrix(1.1218 -.27054 .35065 1.3944 -327.2 75.198)" y1="7.7641" x1="295.1"/>
  <linearGradient id="XMLID_897_" y2="10.711" gradientUnits="userSpaceOnUse" x2="296.94" y1="4.7593" x1="292.97">
   <stop id="stop45093" style="stop-color:#e8e8e5" offset="0"/>
   <stop id="stop45095" style="stop-color:#f0f0f0" offset="1"/>
  </linearGradient>
  <linearGradient id="linearGradient2922" y2="10.711" xlink:href="#XMLID_897_" gradientUnits="userSpaceOnUse" x2="296.94" gradientTransform="matrix(-1.1151 -.23157 -.31964 1.3933 341.24 63.829)" y1="5.469" x1="293.68"/>
 </defs>
 <g id="layer1">
  <path id="path12626" style="stroke-linejoin:round;stroke:#888a85;stroke-linecap:round;fill:url(#linearGradient2922)" d="m13.41 0.48756c0.05195 0.034966 0.10153 0.07212 0.15174 0.10826l-0.036 3.0914c-0.526 2.3128-3.001 3.4848-4.5235 5.4377-0.2128 0.0076-0.4222-0.3182-0.6272-0.3545-0.4316-0.0754-0.8534-0.2458-1.2185-0.512 2.0252-2.5969 4.2082-5.2 6.2532-7.7708z"/>
  <polygon id="polygon2981" style="stroke-linejoin:round;stroke:#973137;stroke-linecap:round;stroke-width:.87712;fill:#d1524c" points="296.96 12.3 297.6 13.385 298.87 14.719 299.27 13.673 298.25 11.96" transform="matrix(-.99317 -.27984 -.35343 1.2092 307.46 77.286)"/>
  <path id="path12632" style="stroke-linejoin:round;stroke:#888a85;stroke-linecap:round;fill:url(#linearGradient6372)" d="m2.7119 0.53777-0.1511 0.11421-0.0222 2.8582c0.4614 2.4898 2.9841 3.7192 4.5612 5.638 0.2151 0.0006 1.0993 0.3406 1.3056 0.2972 0.4345-0.0905 0.8573-0.2763 1.2207-0.5569-2.0976-2.5514-4.7968-5.8262-6.9142-8.3507z"/>
  <path id="path12638" style="stroke:#973137;stroke-width:.54695;fill:#d1524c" d="m6.3371 10.399c0.7513 0.997 0.354 3.307-0.6658 4.609-1.02 1.303-2.2751 1.106-3.0272 0.112-0.7516-0.996-0.5346-2.858 0.4852-4.161 1.0194-1.3019 2.4555-1.5513 3.2078-0.56zm-0.64882 0.83065c-0.33376-0.44123-1.2189-0.28144-1.9038 0.59491-0.68605 0.87592-0.82557 2.0254-0.49201 2.4656 0.3331 0.44277 1.0387 0.72842 1.7236-0.14797 0.68643-0.87575 1.006-2.4713 0.67221-2.9126z"/>
  <polygon id="polygon12640" style="stroke-linejoin:round;stroke:#973137;stroke-linecap:round;stroke-width:.87712;fill:#d1524c" points="297.6 13.385 298.87 14.719 299.27 13.673 298.25 11.96 296.96 12.3 296.96 12.3" transform="matrix(1.0021 -.24613 .31238 1.2204 -293.32 67.335)"/>
  <path id="path2828" style="stroke:#973137;stroke-width:.54695;fill:#d1524c" d="m9.5859 10.399c-0.75124 0.99629-0.35399 3.3066 0.66583 4.6088 1.02 1.3031 2.2751 1.1058 3.0272 0.11219 0.75163-0.99645 0.53466-2.8588-0.48519-4.1609-1.02-1.3019-2.456-1.5513-3.2081-0.56zm0.64882 0.83065c0.33376-0.44123 1.2189-0.28144 1.9038 0.59491 0.68605 0.87592 0.82557 2.0254 0.49201 2.4656-0.3331 0.44277-1.0387 0.72842-1.7236-0.14797-0.68643-0.87575-1.006-2.4713-0.67221-2.9126z"/>
 </g>
</svg>
